app/img/vk.svg

<svg width="20" height="12" viewBox="0 0 20 12" fill="none" xmlns="http://www.w3.org/2000/svg">
<path d="M19.894 10.6C19.8698 10.5478 19.8472 10.5045 19.8262 10.4698C19.4792 9.84485 18.8161 9.07776 17.8373 8.16832L17.8166 8.14749L17.8063 8.13728L17.7958 8.12681H17.7853C17.341 7.70333 17.0597 7.41859 16.9419 7.27281C16.7264 6.9951 16.6781 6.71401 16.7959 6.4292C16.8791 6.21401 17.1918 5.75956 17.7331 5.06523C18.0178 4.69726 18.2433 4.40235 18.4099 4.18016C19.611 2.58339 20.1317 1.56303 19.9719 1.11869L19.9099 1.01485C19.8682 0.952337 19.7606 0.895148 19.5872 0.842992C19.4135 0.790946 19.1914 0.782338 18.9206 0.817024L15.9217 0.83774C15.8731 0.820525 15.8037 0.82213 15.7134 0.842992C15.6231 0.863854 15.5779 0.874322 15.5779 0.874322L15.5257 0.9004L15.4843 0.931729C15.4496 0.952446 15.4114 0.988882 15.3697 1.04097C15.3282 1.09287 15.2936 1.15377 15.2658 1.22318C14.9393 2.06318 14.5681 2.84417 14.1515 3.5661C13.8946 3.99659 13.6587 4.36967 13.4433 4.68555C13.2281 5.00133 13.0476 5.23399 12.9019 5.38313C12.756 5.53241 12.6244 5.652 12.5061 5.74235C12.3881 5.83273 12.298 5.87091 12.2355 5.85694C12.173 5.84297 12.1141 5.82911 12.0583 5.81525C11.9612 5.75274 11.8831 5.66772 11.8242 5.56013C11.765 5.45254 11.7252 5.31711 11.7044 5.15397C11.6836 4.99072 11.6714 4.8503 11.6679 4.73224C11.6646 4.61432 11.6661 4.44754 11.6732 4.23235C11.6804 4.01705 11.6836 3.87138 11.6836 3.79501C11.6836 3.53116 11.6888 3.24482 11.6991 2.93589C11.7096 2.62697 11.7181 2.38221 11.7252 2.20188C11.7323 2.02138 11.7356 1.83041 11.7356 1.62908C11.7356 1.42776 11.7233 1.26987 11.6991 1.15527C11.6752 1.04082 11.6385 0.929724 11.5901 0.82202C11.5414 0.714426 11.4701 0.631196 11.3766 0.572111C11.2829 0.513098 11.1664 0.466267 11.0278 0.431472C10.6598 0.348206 10.1912 0.303162 9.62185 0.296159C8.33069 0.2823 7.50105 0.365676 7.13311 0.546178C6.98733 0.622442 6.85541 0.726644 6.73746 0.858456C6.61247 1.01124 6.59504 1.09462 6.68527 1.10833C7.10186 1.17073 7.39677 1.32002 7.57035 1.55603L7.6329 1.68109C7.68155 1.77133 7.73013 1.93108 7.77875 2.16012C7.8273 2.38917 7.85863 2.64255 7.87241 2.9201C7.90706 3.42696 7.90706 3.86084 7.87241 4.22177C7.83765 4.58285 7.80483 4.86394 7.7735 5.06527C7.74217 5.2666 7.69534 5.42974 7.6329 5.55466C7.57035 5.67961 7.52873 5.75599 7.50787 5.78371C7.48704 5.81143 7.46968 5.8289 7.4559 5.83575C7.36566 5.87033 7.27182 5.88794 7.17469 5.88794C7.07742 5.88794 6.95947 5.83929 6.82065 5.74205C6.68188 5.64482 6.53785 5.51126 6.38856 5.34115C6.23928 5.171 6.07093 4.93324 5.88342 4.62782C5.69606 4.3224 5.50166 3.96143 5.30033 3.54491L5.13376 3.24285C5.02963 3.04852 4.88739 2.76557 4.70689 2.39424C4.52628 2.02277 4.36664 1.66344 4.22786 1.31633C4.17238 1.17055 4.08904 1.05957 3.97799 0.983193L3.92587 0.951862C3.89122 0.924143 3.8356 0.89471 3.7593 0.863343C3.68289 0.832014 3.60316 0.809546 3.51978 0.795723L0.666572 0.81644C0.375011 0.81644 0.177184 0.882491 0.073018 1.01441L0.0313299 1.07682C0.0105041 1.11158 0 1.16709 0 1.2435C0 1.31987 0.0208258 1.4136 0.0625139 1.52459C0.47903 2.50351 0.931983 3.4476 1.42137 4.35701C1.91076 5.26642 2.33603 5.99897 2.69692 6.55401C3.05789 7.10945 3.42583 7.63367 3.80073 8.12641C4.17563 8.61934 4.42379 8.93522 4.54521 9.074C4.66677 9.21304 4.76225 9.31698 4.83166 9.38639L5.09204 9.63626C5.25865 9.80291 5.5033 10.0025 5.82612 10.235C6.14901 10.4677 6.50648 10.6967 6.89871 10.9225C7.291 11.1479 7.74739 11.3319 8.2681 11.4742C8.78875 11.6166 9.2955 11.6738 9.78842 11.6462H10.986C11.2288 11.6252 11.4128 11.5488 11.5379 11.417L11.5793 11.3648C11.6072 11.3234 11.6333 11.259 11.6573 11.1724C11.6817 11.0856 11.6938 10.99 11.6938 10.8861C11.6867 10.5876 11.7094 10.3186 11.7614 10.0791C11.8133 9.83974 11.8724 9.65924 11.9386 9.53768C12.0047 9.41622 12.0793 9.31374 12.1624 9.23065C12.2456 9.14738 12.3049 9.09694 12.3397 9.07958C12.3743 9.06211 12.4019 9.05026 12.4227 9.04315C12.5893 8.98764 12.7854 9.0414 13.0112 9.20468C13.2369 9.36782 13.4486 9.56926 13.6465 9.80867C13.8444 10.0483 14.0821 10.3171 14.3597 10.6156C14.6376 10.9142 14.8805 11.1361 15.0886 11.2821L15.2968 11.407C15.4359 11.4904 15.6164 11.5668 15.8386 11.6362C16.0604 11.7056 16.2547 11.7229 16.4215 11.6882L19.0872 11.6467C19.3509 11.6467 19.556 11.603 19.7015 11.5164C19.8474 11.4296 19.934 11.334 19.9619 11.23C19.9898 11.1259 19.9913 11.0078 19.9672 10.8758C19.9425 10.7441 19.9182 10.652 19.894 10.6Z" fill="white"/>
</svg>

<svg width="20" height="12" fill="none" xmlns="http://www.w3.org/2000/svg"><path d="M19.894 10.6a1.36 1.36 0 00-.068-.13c-.347-.625-1.01-1.392-1.989-2.302l-.02-.02-.01-.01-.011-.011h-.01c-.445-.424-.726-.708-.844-.854-.216-.278-.264-.559-.146-.844.083-.215.396-.67.937-1.364.285-.368.51-.663.677-.885 1.201-1.597 1.722-2.617 1.562-3.061l-.062-.104c-.042-.063-.15-.12-.323-.172-.174-.052-.396-.06-.666-.026l-3 .02a.389.389 0 00-.208.006l-.135.031-.052.026-.042.032a.463.463 0 00-.114.109.716.716 0 00-.104.182c-.327.84-.698 1.621-1.114 2.343-.257.43-.493.804-.709 1.12a5.388 5.388 0 01-.541.697c-.146.15-.278.269-.396.36-.118.09-.208.128-.27.114a7.733 7.733 0 01-.178-.042.692.692 0 01-.234-.255 1.141 1.141 0 01-.12-.406 4.45 4.45 0 01-.036-.422 8.704 8.704 0 01.005-.5c.007-.215.01-.36.01-.437 0-.264.006-.55.016-.86l.026-.733c.007-.18.01-.372.01-.573 0-.201-.012-.36-.036-.474a1.62 1.62 0 00-.109-.333.561.561 0 00-.213-.25 1.204 1.204 0 00-.35-.14c-.367-.085-.835-.13-1.404-.137-1.291-.014-2.12.07-2.489.25-.146.076-.278.18-.396.312-.125.153-.142.237-.052.25.417.063.712.212.885.448l.063.125c.049.09.097.25.146.48.048.228.08.482.093.76.035.506.035.94 0 1.3a15.51 15.51 0 01-.098.844 1.689 1.689 0 01-.266.719.18.18 0 01-.052.052.78.78 0 01-.281.052c-.098 0-.216-.049-.354-.146a2.498 2.498 0 01-.432-.4 5.36 5.36 0 01-.506-.714A12.447 12.447 0 015.3 3.545l-.166-.302a25.973 25.973 0 01-.427-.849c-.18-.371-.34-.73-.48-1.078a.687.687 0 00-.249-.333L3.926.952a.713.713 0 00-.167-.089 1.105 1.105 0 00-.24-.067L.668.816c-.292 0-.49.066-.594.198l-.042.063A.337.337 0 000 1.244c0 .076.02.17.063.28.416.98.869 1.924 1.358 2.833.49.91.915 1.642 1.276 2.197.36.555.729 1.08 1.104 1.572.375.493.623.81.744.948.122.139.217.243.287.312l.26.25c.167.167.411.367.734.599.323.233.68.462 1.073.688.392.225.848.409 1.37.551.52.143 1.027.2 1.52.172h1.197c.243-.02.427-.097.552-.229l.041-.052a.687.687 0 00.078-.193c.025-.086.037-.182.037-.286a3.429 3.429 0 01.067-.807c.052-.24.111-.42.178-.541a1.329 1.329 0 01.4-.458.682.682 0 01.084-.037c.166-.055.362-.002.588.162.226.163.438.364.636.604.197.24.435.508.713.807.278.298.52.52.729.666l.208.125c.139.083.32.16.542.23.221.069.416.086.583.051l2.665-.041c.264 0 .469-.044.614-.13.146-.087.233-.183.26-.287a.805.805 0 00.006-.354 1.308 1.308 0 00-.073-.276z" fill="#fff"/></svg>
